X:1035
T:Bus Stop, The
R:reel
C:Anita Anderson, Seattle, USA
D:Kevin Burke: Open House
Z:id:hn-reel-1035
M:C|
L:1/8
K:Ador
A2eA dAcB | ABcA BAGB | A2eA dAcA | (3Bcd ef gedB |
A2eA dAcB | ABcA BAGB | (3EFG Ac BAGB | A2AG A2 (3EFG :|
|: A2ag edcB | ABcd e2cB | A2ag edcA | defd e2cB |
A2ag edcB | ABcd e2dc | BAGF EFGB | A2AG A2 (3EFG :|

